dist/svg/sun.svg

<svg width="16" height="16" viewBox="0 0 16 16" fill="rgb(34, 34, 34)" xmlns="http://www.w3.org/2000/svg"><title>sun</title><path d="M8.75 0H7.25V2H8.75V0Z" fill="rgb(34, 34, 34)" fill-opacity="1.00"/><path d="M8.75 14H7.25V16H8.75V14Z" fill="rgb(34, 34, 34)" fill-opacity="1.00"/><path d="M2.873 1.81299L1.813 2.87299L3.227 4.28799L4.288 3.22699L2.873 1.81299Z" fill="rgb(34, 34, 34)" fill-opacity="1.00"/><path d="M12.773 11.712L11.712 12.773L13.127 14.187L14.187 13.127L12.773 11.712Z" fill="rgb(34, 34, 34)" fill-opacity="1.00"/><path d="M2 7.25H0V8.75H2V7.25Z" fill="rgb(34, 34, 34)" fill-opacity="1.00"/><path d="M16 7.25H14V8.75H16V7.25Z" fill="rgb(34, 34, 34)" fill-opacity="1.00"/><path d="M3.227 11.712L1.813 13.127L2.873 14.187L4.288 12.773L3.227 11.712Z" fill="rgb(34, 34, 34)" fill-opacity="1.00"/><path d="M13.127 1.81299L11.712 3.22699L12.773 4.28799L14.187 2.87299L13.127 1.81299Z" fill="rgb(34, 34, 34)" fill-opacity="1.00"/><path d="M12.75 8C12.75 10.623 10.623 12.75 8 12.75C5.377 12.75 3.25 10.623 3.25 8C3.25 5.377 5.377 3.25 8 3.25C10.623 3.25 12.75 5.377 12.75 8Z" fill="rgb(34, 34, 34)" fill-opacity="1.00"/></svg>

<!-- Generated by Trend Micro Style Portal -->
<svg version="1.1" xmlns="http://www.w3.org/2000/svg" width="16" height="16" viewBox="0 0 16 16">
  <title>sun</title>
  <path fill="rgb(34,34,34)" d="M8.75 0h-1.5v2h1.5v-2z"></path>
  <path fill="rgb(34,34,34)" d="M8.75 14h-1.5v2h1.5v-2z"></path>
  <path fill="rgb(34,34,34)" d="M2.873 1.813l-1.060 1.060 1.414 1.415 1.061-1.061-1.415-1.414z"></path>
  <path fill="rgb(34,34,34)" d="M12.773 11.712l-1.061 1.061 1.415 1.414 1.060-1.060-1.414-1.415z"></path>
  <path fill="rgb(34,34,34)" d="M2 7.25h-2v1.5h2v-1.5z"></path>
  <path fill="rgb(34,34,34)" d="M16 7.25h-2v1.5h2v-1.5z"></path>
  <path fill="rgb(34,34,34)" d="M3.227 11.712l-1.414 1.415 1.060 1.060 1.415-1.414-1.061-1.061z"></path>
  <path fill="rgb(34,34,34)" d="M13.127 1.813l-1.415 1.414 1.061 1.061 1.414-1.415-1.060-1.060z"></path>
  <path fill="rgb(34,34,34)" d="M12.75 8c0 2.623-2.127 4.75-4.75 4.75s-4.75-2.127-4.75-4.75c0-2.623 2.127-4.75 4.75-4.75s4.75 2.127 4.75 4.75z"></path>
</svg>
